X:1
T:Title
%%score 1 { 2 | 3 }
L:1/8
Q:1/4=113
M:4/4
K:D
V:1 treble nm="Grand Piano, Staff 1"
V:2 bass nm="Choir Pad, Moravia, SM"
V:3 bass 
V:1
 [A,D]2 [DF]2 [EA]2 [Dd]2 | [DB]2 [DA]6 | [EG]2 [DF]2 [A,D]2 [DF]2 | [D^G]2 [CA]6 | %4
w: By~L.~R.~West * * *||||
 [CA]2 [Ee]2 [Ed]2 [Ec]2 | [FA]2 [FA]2 [E^G]2 [EA]2 | [DF]2 [Fd]2 [DF]2 [EG]2 | [CE]2 D6- | %8
w: ||||
 D2 z2 z4 |] %9
w: |
V:2
 F,2 A,2 E,2 F,2 | G,2 F,6 | A,2 A,2 A,2 A,2 | B,2 E,6 | A,2 A,2 ^G,2 A,2 | C2 B,2 B,2 C2 | %6
 A,2 B,2 B,2 B,2 | A,G, F,6- | F,2 z2 z4 |] %9
V:3
 D,2 D,2 C,2 B,,2 | G,,2 D,6 | C,2 D,2 F,2 D,2 | B,,2 A,,6 | A,,2 C,2 E,2 z2 | F,2 D,2 E,2 A,,2 | %6
 D,2 B,,2 B,,A,, G,,2 | A,,2 D,6- | D,2 z2 z4 |] %9

